Assets/Icons/synology-dsm.svg

<svg xmlns="http://www.w3.org/2000/svg" width="24" height="24" viewBox="0 0 24 24"><path fill="currentColor" d="M3.5845 23.9549C1.8655 23.7295.5596 22.5503.1142 20.8214.0279 20.4864.0217 19.8938.0217 11.9711V3.4798L.1391 3.0411C.5415 1.5368 1.606.4755 3.1148.0743L3.5549-.0428H11.9399C19.6391-.0428 20.3532-.0355 20.6704.0461 22.0191.3928 23.0273 1.227 23.5248 2.4076 23.8819 3.2548 23.8581 2.574 23.8581 11.9708V20.4621L23.7408 20.9008C23.3408 22.3957 22.2932 23.4521 20.7995 23.8667L20.3777 23.9837 12.1512 23.9914C7.6266 23.9957 3.7717 23.979 3.5849 23.9546ZM12.2109 15.7541C13.2626 15.4885 13.9542 14.8305 14.1308 13.9277 14.3159 12.9812 13.8487 12.045 12.9944 11.6504 12.8203 11.57 12.1677 11.3695 11.5441 11.2049 10.0341 10.8063 9.7525 10.6562 9.6676 10.2047 9.5829 9.7547 9.8591 9.3321 10.3298 9.1915 10.5963 9.1119 11.3339 9.1055 11.5881 9.1807 11.9679 9.2929 12.2334 9.4979 12.3657 9.7813 12.4353 9.9303 12.4925 10.1039 12.4928 10.1669 12.4938 10.3999 12.6163 10.4467 13.2253 10.4467 13.9818 10.4467 14.0131 10.424 13.9238 9.941 13.6954 8.7049 12.5792 7.923 11.0431 7.923 9.8011 7.923 8.815 8.4265 8.3998 9.2724 8.2755 9.5258 8.2478 9.6582 8.2315 10.0769 8.2073 10.6974 8.3218 11.0484 8.677 11.4423 9.0157 11.8179 9.4775 12.0254 10.6738 12.3394 12.2337 12.749 12.3962 12.8148 12.6136 13.1266 12.7288 13.2917 12.7368 13.8591 12.6271 14.0708 12.4149 14.48 11.9223 14.6805 11.1486 14.6727 10.5405 14.6666 10.1322 14.542 9.8175 14.2666 9.606 14.0815 9.3833 13.6515 9.3825 13.4269 9.3813 13.0976 9.3352 13.0755 8.6483 13.0755 7.8756 13.0755 7.873 13.0775 7.9561 13.6116 8.1877 15.1 9.5236 15.9815 11.3859 15.8749 11.6324 15.8607 12.0036 15.8064 12.2108 15.754ZM4.8101 15.6189C5.5755 15.4466 6.2938 14.9569 6.6944 14.3346 7.449 13.1621 7.525 11.1267 6.8646 9.7732 6.5942 9.2192 6.0725 8.693 5.5325 8.4299 4.8988 8.121 4.5576 8.0807 2.5766 8.0807.9164 8.0807.8405 8.0851.7882 8.1824.7127 8.3231.7127 15.4618.7882 15.6028.8405 15.7003.9171 15.7045 2.6367 15.7045 4.1019 15.7045 4.5002 15.6888 4.8102 15.619ZM2.2102 11.8926V9.2901H3.0442C4.0094 9.2901 4.3849 9.3465 4.7917 9.5528 5.5732 9.949 5.8602 10.5775 5.8602 11.8926 5.8602 12.9317 5.6972 13.4896 5.2688 13.9168 4.8117 14.3725 4.3563 14.4951 3.1219 14.4951H2.2101ZM16.5219 15.6211C16.5395 15.5755 16.5555 14.3511 16.5575 12.9003 16.5598 11.1881 16.5787 10.2995 16.6113 10.3678 16.6389 10.4257 17.0836 11.6441 17.5994 13.0755L18.5373 15.6781 19.0989 15.6929C19.6341 15.7071 19.6641 15.7022 19.7373 15.5877 19.7796 15.5217 20.2222 14.3321 20.7209 12.9441 21.2195 11.5561 21.648 10.3849 21.6731 10.3415 21.6992 10.2964 21.7197 11.3988 21.7211 12.9178 21.7224 14.3781 21.7428 15.6033 21.7664 15.6404 21.7984 15.6905 21.9705 15.704 22.438 15.6929L23.0666 15.6781V8.1071L22.1701 8.0941C21.677 8.087 21.2422 8.1012 21.2038 8.126 21.1653 8.1506 20.7026 9.4223 20.1754 10.9518 19.6483 12.4814 19.1962 13.7328 19.1707 13.7328 19.1452 13.7328 18.6859 12.4908 18.15 10.9726 17.6141 9.4544 17.151 8.1822 17.1209 8.1454 17.0796 8.0948 16.8399 8.082 16.1377 8.0928L15.2091 8.1071 15.1955 11.8401C15.188 13.8932 15.1932 15.6026 15.207 15.6388 15.2252 15.6862 15.4066 15.7045 15.8611 15.7045 16.3858 15.7045 16.4952 15.6907 16.5219 15.6213Z"/></svg>

<svg version="1.2" xmlns="http://www.w3.org/2000/svg" viewBox="0 0 24 24" width="24" height="24"><style></style><path  d="m3.6 24c-1.7-0.3-3-1.4-3.5-3.2-0.1-0.3-0.1-0.9-0.1-8.8v-8.5l0.1-0.5c0.4-1.5 1.5-2.5 3-2.9l0.5-0.1h8.3c7.7 0 8.5 0 8.8 0 1.3 0.4 2.3 1.2 2.8 2.4 0.4 0.9 0.4 0.2 0.4 9.6v8.5l-0.2 0.4c-0.4 1.5-1.4 2.6-2.9 3l-0.4 0.1h-8.2c-4.6 0-8.4 0-8.6 0zm8.6-8.2c1.1-0.3 1.8-1 1.9-1.9 0.2-0.9-0.3-1.9-1.1-2.2-0.2-0.1-0.8-0.3-1.5-0.5-1.5-0.4-1.7-0.5-1.8-1-0.1-0.4 0.2-0.9 0.6-1 0.3-0.1 1-0.1 1.3 0q0.6 0.2 0.8 0.6c0 0.1 0.1 0.3 0.1 0.4 0 0.2 0.1 0.2 0.7 0.2 0.8 0 0.8 0 0.7-0.5-0.2-1.2-1.3-2-2.9-2-1.2 0-2.2 0.5-2.6 1.4-0.1 0.2-0.2 0.4-0.2 0.8 0 0.6 0.1 0.9 0.5 1.3 0.3 0.4 0.8 0.6 2 0.9 1.5 0.4 1.7 0.5 1.9 0.8 0.1 0.2 0.1 0.8 0 1q-0.3 0.6-1.5 0.6c-0.6 0-1-0.2-1.3-0.4-0.2-0.2-0.4-0.6-0.4-0.9 0-0.3-0.1-0.3-0.8-0.3-0.7 0-0.7 0-0.6 0.5 0.2 1.5 1.5 2.4 3.4 2.3 0.2 0 0.6-0.1 0.8-0.1zm-7.4-0.2c0.8-0.2 1.5-0.6 1.9-1.3 0.7-1.1 0.8-3.2 0.2-4.5-0.3-0.6-0.8-1.1-1.4-1.4-0.6-0.3-0.9-0.3-2.9-0.3-1.7 0-1.8 0-1.8 0.1-0.1 0.1-0.1 7.3 0 7.4 0 0.1 0.1 0.1 1.8 0.1 1.5 0 1.9 0 2.2-0.1zm-2.6-3.7v-2.6h0.8c1 0 1.4 0 1.8 0.3 0.8 0.3 1.1 1 1.1 2.3 0 1-0.2 1.6-0.6 2-0.5 0.5-0.9 0.6-2.2 0.6h-0.9zm14.3 3.7c0 0 0.1-1.2 0.1-2.7 0-1.7 0-2.6 0-2.5 0 0 0.5 1.2 1 2.7l0.9 2.6h0.6c0.5 0 0.6 0 0.6-0.1 0.1-0.1 0.5-1.3 1-2.7 0.5-1.3 0.9-2.5 1-2.6 0 0 0 1.1 0 2.6 0 1.5 0 2.7 0.1 2.7 0 0.1 0.2 0.1 0.6 0.1h0.7v-7.6h-0.9c-0.5 0-1 0-1 0 0 0.1-0.5 1.3-1 2.9-0.6 1.5-1 2.7-1 2.7-0.1 0-0.5-1.2-1.1-2.7-0.5-1.5-0.9-2.8-1-2.9 0 0-0.3 0-1 0h-0.9v3.7c0 2.1 0 3.8 0 3.8 0 0.1 0.2 0.1 0.7 0.1 0.5 0 0.6 0 0.6-0.1z"/></svg>
